X: 24646
T: Macedonian Oro
R: reel
M: 4/4
K: Dmajor
|:ABB BA GD|GAA AG FD|FGG GA GF|F2D FG AD|
ABB BA GD|GAA AG FD|FGG GA GF|F2D FG AD:|
|:FAB c2 c2|cdd cB A2|FAB c2 c2|cdd c4|
ABc cd cB|A2G FG AD|A2G GA GF|F2D FG AD|

